X:143
T:Skr\"addarpolska
R:sl\"angpolska
H:efter Pehr Eriksson, "Granlundsgubben", Helgar\"o
A:S\"ormland
B:K.P. Leffler
Z:id:hn-sp-143
M:3/4
L:1/16
K:D
D2DE FEDE F2D2 | DEFG AGFG A2F2 | ABcd efge gfed |
cdec d3A F2D2 | D2DE FEDE F2D2 | DEFG AGFG A2F2 |
ABcd e2f2 g2a2 | bgec d4 D4 :||: d2d2 Acec Acec |
d2d2 Acec Acec | d2d2 efge gfed | cdec d3A F2D2 |
d2d2 Acec Acec | d2d2 Acec Acec | ABcd e2f2 g2a2 |
bgec d4 D4 :|

